Costumes/scarf2.svg

<?xml version="1.0" encoding="UTF-8" standalone="no"?>
<svg
   version="1.1"
   width="51.484886"
   height="76.810127"
   viewBox="-1 -1 51.484886 76.810127"
   id="svg23"
   sodipodi:docname="scarf2.svg"
   xmlns:inkscape="http://www.inkscape.org/namespaces/inkscape"
   xmlns:sodipodi="http://sodipodi.sourceforge.net/DTD/sodipodi-0.dtd"
   xmlns="http://www.w3.org/2000/svg"
   xmlns:svg="http://www.w3.org/2000/svg">
  <defs
     id="defs27" />
  <sodipodi:namedview
     id="namedview25"
     pagecolor="#ffffff"
     bordercolor="#000000"
     borderopacity="0.25"
     inkscape:showpageshadow="2"
     inkscape:pageopacity="0.0"
     inkscape:pagecheckerboard="0"
     inkscape:deskcolor="#d1d1d1" />
  <!-- Exported by Scratch - http://scratch.mit.edu/ -->
  <g
     id="ID0.5003740410320461"
     transform="matrix(0.85737497,0,0,0.85737497,-1.1185609,-1.7900618)">
    <g
       id="ID0.9835372027009726">
      <path
         id="ID0.12412129249423742"
         fill="none"
         stroke="#000000"
         stroke-width="1"
         stroke-linecap="round"
         d="m 239,149.1 -0.15,3.75"
         transform="matrix(-1.2048193,0,0,1.2048193,324.45,-94.25)" />
      <path
         id="ID0.2702780975960195"
         fill="none"
         stroke="#000000"
         stroke-width="1"
         stroke-linecap="round"
         d="m 241,148.2 -0.15,4"
         transform="matrix(-1.2048193,0,0,1.2048193,324.45,-94.25)" />
      <path
         id="ID0.5936826444230974"
         fill="none"
         stroke="#000000"
         stroke-width="1"
         stroke-linecap="round"
         d="m 243.25,146.7 v 3.9"
         transform="matrix(-1.2048193,0,0,1.2048193,324.45,-94.25)" />
      <path
         id="ID0.9034066344611347"
         fill="none"
         stroke="#000000"
         stroke-width="1"
         stroke-linecap="round"
         d="m 245.25,146 0.1,3.5"
         transform="matrix(-1.2048193,0,0,1.2048193,324.45,-94.25)" />
      <path
         id="ID0.173565159086138"
         fill="none"
         stroke="#000000"
         stroke-width="1"
         stroke-linecap="round"
         d="m 247.5,144.7 -0.15,3.4"
         transform="matrix(-1.2048193,0,0,1.2048193,324.45,-94.25)" />
      <path
         id="ID0.9891251814551651"
         fill="none"
         stroke="#000000"
         stroke-width="1"
         stroke-linecap="round"
         d="m 249.5,143.2 v 3.65"
         transform="matrix(-1.2048193,0,0,1.2048193,324.45,-94.25)" />
      <path
         id="ID0.03268808778375387"
         fill="none"
         stroke="#000000"
         stroke-width="1"
         stroke-linecap="round"
         d="m 251.35,142.5 v 3"
         transform="matrix(-1.2048193,0,0,1.2048193,324.45,-94.25)" />
      <path
         id="ID0.2225156375207007"
         fill="none"
         stroke="#000000"
         stroke-width="1"
         stroke-linecap="round"
         d="m 253.25,141 v 3.5"
         transform="matrix(-1.2048193,0,0,1.2048193,324.45,-94.25)" />
      <path
         id="ID0.2978769950568676"
         fill="none"
         stroke="#000000"
         stroke-width="1"
         stroke-linecap="round"
         d="m 254.85,140.5 v 3.6"
         transform="matrix(-1.2048193,0,0,1.2048193,324.45,-94.25)" />
    </g>
    <g
       id="ID0.25013402896001935">
      <path
         id="ID0.4253667611628771"
         fill="#cc99ff"
         stroke="#000000"
         stroke-width="1"
         stroke-linecap="round"
         d="m 243.25,93.5 12.9,-4.25 -0.4,50.25 -18.6,10.5 0.25,-16.5 z"
         transform="matrix(-1.2048193,0,0,1.2048193,324.45,-94.25)" />
      <path
         id="ID0.254142708145082"
         fill="#7f00ff"
         stroke="#000000"
         stroke-width="1"
         stroke-linecap="round"
         d="m 246.5,83.25 c 6.688,-3.521 12.648,-8.963 20.25,-10.75 1.921,-0.451 3.158,3.935 2,5.5 -1.711,2.295 -5.55,1.25 -8,2.5 -2.818,1.537 -4.936,4.001 -7.6,5.75 -3.745,2.464 -7.231,5.542 -11.5,7 -3.231,1.257 -6.883,1.532 -10.411,0.931 -2.478,-0.421 -6.821,-2.904 -6.589,-3.681 0.235,-0.804 5.302,0.571 7.75,-0.25 4.804,-1.612 9.349,-4.61 14.1,-7 z"
         transform="matrix(-1.2048193,0,0,1.2048193,325.1,-76.15)" />
      <path
         id="path14"
         fill="#cc99ff"
         stroke="#000000"
         stroke-width="1"
         stroke-linecap="round"
         d="m 243.9,83.55 c 5.774,-1.37 10.705,-5.488 16.5,-6.75 1.453,-0.316 0.299,2.24 -0.25,3 -1.985,2.543 -4.536,4.667 -7,6.45 -3.632,2.628 -7.231,5.542 -11.5,7 -3.231,1.257 -6.974,1.47 -10.411,0.931 -2.792,-0.44 -5.687,-1.974 -7.589,-4.131 -0.922,-1.049 -1.356,-4.014 0.25,-4.5 6.397,-1.905 13.491,-0.427 20,-2 z"
         transform="matrix(-1.2048193,0,0,1.2048193,328.05,-79.5)" />
      <path
         id="path16"
         fill="#7f00ff"
         stroke="#000000"
         stroke-width="1"
         stroke-linecap="round"
         d="m 239.3,91.1 c 6.005,-0.937 10.724,-5.875 16.25,-7.75 3.992,-1.353 8.379,-2.569 12.5,-2 1.601,0.221 4.227,3.209 2.75,4 -4.539,2.381 -10.845,0.921 -15.75,2.5 -4.245,1.391 -8.026,4.115 -12,6 -3.971,1.885 -7.678,5.721 -12,5.5 -3.195,-0.165 -6.064,-3.529 -7.25,-6.25 -0.497,-2.161 1.213,-4.976 3.25,-5.25 4.319,-0.582 8.163,3.907 12.25,3.25 z"
         transform="matrix(-1.2048193,0,0,1.2048193,327.9,-90.2)" />
      <path
         id="ID0.16338649159297347"
         fill="#666666"
         stroke="#000000"
         stroke-width="1"
         stroke-linecap="round"
         d="m 230.65,85.25 c 0.219,-0.218 -2.131,0.611 -1.4,0.2 3.18,-1.651 6.293,-3.631 9.65,-4.55 0.839,-0.23 -0.568,1.373 -0.6,2.1 -0.022,0.496 0.33,0.983 0.6,1.45 0.481,1.052 2.331,2.104 1.65,3.1 -1.585,2.314 -4.595,3.14 -7.082,4.564 -0.952,0.545 -1.961,1.255 -3.093,1.136 -1.063,-0.106 -1.258,-1.587 -2.025,-2.15 -1.328,-0.406 -3.855,0.346 -4,-0.6 -0.172,-1.155 2.154,-2.397 3.4,-3.4 0.907,-0.734 2.274,-1.241 2.9,-1.85 z"
         transform="matrix(-1.2048193,0,0,1.2048193,324.45,-94.25)" />
      <path
         id="path19"
         fill="#cc99ff"
         stroke="#000000"
         stroke-width="1"
         stroke-linecap="round"
         d="m 243.875,86.5 c 4.824,-1.791 8.65,-6.605 13.775,-7 2.56,-0.19 6.409,3.597 5.5,5 -1.208,1.864 -6.886,0.434 -10,1.75 -4.084,1.724 -7.322,5.353 -11.5,7 -2.879,1.189 -5.546,1.855 -8.4,1.75 -3.115,-0.129 -6.749,-0.268 -9,-2.4 -1.277,-1.213 -0.119,-4.043 1.15,-5.35 1.564,-1.61 4.022,-2.429 6.25,-2.4 1.795,0.023 3.048,2.194 4.85,2.4 2.437,0.367 5.021,0.124 7.375,-0.75 z"
         transform="matrix(-1.2048193,0,0,1.2048193,324.45,-94.25)" />
    </g>
  </g>
</svg>

<svg version="1.1" width="62" height="91" viewBox="-1 -1 62 91" xmlns="http://www.w3.org/2000/svg" xmlns:xlink="http://www.w3.org/1999/xlink">
  <!-- Exported by Scratch - http://scratch.mit.edu/ -->
  <g id="ID0.5003740410320461" transform="matrix(0.8573749661445618, 0, 0, 0.8573749661445618, 0.3, -0.55)">
    <g id="ID0.9835372027009726">
      <path id="ID0.12412129249423742" fill="none" stroke="#000000" stroke-width="1" stroke-linecap="round" d="M 239 149.100 L 238.850 152.850 " transform="matrix(-1.2048193216323853, 0, 0, 1.2048193216323853, 324.45, -94.25)"/>
      <path id="ID0.2702780975960195" fill="none" stroke="#000000" stroke-width="1" stroke-linecap="round" d="M 241 148.200 L 240.850 152.200 " transform="matrix(-1.2048193216323853, 0, 0, 1.2048193216323853, 324.45, -94.25)"/>
      <path id="ID0.5936826444230974" fill="none" stroke="#000000" stroke-width="1" stroke-linecap="round" d="M 243.250 146.700 L 243.250 150.600 " transform="matrix(-1.2048193216323853, 0, 0, 1.2048193216323853, 324.45, -94.25)"/>
      <path id="ID0.9034066344611347" fill="none" stroke="#000000" stroke-width="1" stroke-linecap="round" d="M 245.250 146 L 245.350 149.500 " transform="matrix(-1.2048193216323853, 0, 0, 1.2048193216323853, 324.45, -94.25)"/>
      <path id="ID0.173565159086138" fill="none" stroke="#000000" stroke-width="1" stroke-linecap="round" d="M 247.500 144.700 L 247.350 148.100 " transform="matrix(-1.2048193216323853, 0, 0, 1.2048193216323853, 324.45, -94.25)"/>
      <path id="ID0.9891251814551651" fill="none" stroke="#000000" stroke-width="1" stroke-linecap="round" d="M 249.500 143.200 L 249.500 146.850 " transform="matrix(-1.2048193216323853, 0, 0, 1.2048193216323853, 324.45, -94.25)"/>
      <path id="ID0.03268808778375387" fill="none" stroke="#000000" stroke-width="1" stroke-linecap="round" d="M 251.350 142.500 L 251.350 145.500 " transform="matrix(-1.2048193216323853, 0, 0, 1.2048193216323853, 324.45, -94.25)"/>
      <path id="ID0.2225156375207007" fill="none" stroke="#000000" stroke-width="1" stroke-linecap="round" d="M 253.250 141 L 253.250 144.500 " transform="matrix(-1.2048193216323853, 0, 0, 1.2048193216323853, 324.45, -94.25)"/>
      <path id="ID0.2978769950568676" fill="none" stroke="#000000" stroke-width="1" stroke-linecap="round" d="M 254.850 140.500 L 254.850 144.100 " transform="matrix(-1.2048193216323853, 0, 0, 1.2048193216323853, 324.45, -94.25)"/>
    </g>
    <g id="ID0.25013402896001935">
      <path id="ID0.4253667611628771" fill="#CC99FF" stroke="#000000" stroke-width="1" stroke-linecap="round" d="M 243.250 93.500 L 256.150 89.250 L 255.750 139.500 L 237.150 150 L 237.400 133.500 L 243.250 93.500 Z " transform="matrix(-1.2048193216323853, 0, 0, 1.2048193216323853, 324.45, -94.25)"/>
      <path id="ID0.254142708145082" fill="#7F00FF" stroke="#000000" stroke-width="1" stroke-linecap="round" d="M 246.500 83.250 C 253.188 79.729 259.148 74.287 266.750 72.500 C 268.671 72.049 269.908 76.435 268.750 78 C 267.039 80.295 263.200 79.250 260.750 80.500 C 257.932 82.037 255.814 84.501 253.150 86.250 C 249.405 88.714 245.919 91.792 241.650 93.250 C 238.419 94.507 234.767 94.782 231.239 94.181 C 228.761 93.760 224.418 91.277 224.650 90.500 C 224.885 89.696 229.952 91.071 232.400 90.250 C 237.204 88.638 241.749 85.640 246.500 83.250 Z " transform="matrix(-1.2048193216323853, 0, 0, 1.2048193216323853, 325.1, -76.15)"/>
      <path id="ID0.254142708145082" fill="#CC99FF" stroke="#000000" stroke-width="1" stroke-linecap="round" d="M 243.900 83.550 C 249.674 82.180 254.605 78.062 260.400 76.800 C 261.853 76.484 260.699 79.040 260.150 79.800 C 258.165 82.343 255.614 84.467 253.150 86.250 C 249.518 88.878 245.919 91.792 241.650 93.250 C 238.419 94.507 234.676 94.720 231.239 94.181 C 228.447 93.741 225.552 92.207 223.650 90.050 C 222.728 89.001 222.294 86.036 223.900 85.550 C 230.297 83.645 237.391 85.123 243.900 83.550 Z " transform="matrix(-1.2048193216323853, 0, 0, 1.2048193216323853, 328.05, -79.5)"/>
      <path id="ID0.254142708145082" fill="#7F00FF" stroke="#000000" stroke-width="1" stroke-linecap="round" d="M 239.300 91.100 C 245.305 90.163 250.024 85.225 255.550 83.350 C 259.542 81.997 263.929 80.781 268.050 81.350 C 269.651 81.571 272.277 84.559 270.800 85.350 C 266.261 87.731 259.955 86.271 255.050 87.850 C 250.805 89.241 247.024 91.965 243.050 93.850 C 239.079 95.735 235.372 99.571 231.050 99.350 C 227.855 99.185 224.986 95.821 223.800 93.100 C 223.303 90.939 225.013 88.124 227.050 87.850 C 231.369 87.268 235.213 91.757 239.300 91.100 Z " transform="matrix(-1.2048193216323853, 0, 0, 1.2048193216323853, 327.9, -90.2)"/>
      <path id="ID0.16338649159297347" fill="#666666" stroke="#000000" stroke-width="1" stroke-linecap="round" d="M 230.650 85.250 C 230.869 85.032 228.519 85.861 229.250 85.450 C 232.430 83.799 235.543 81.819 238.900 80.900 C 239.739 80.670 238.332 82.273 238.300 83 C 238.278 83.496 238.630 83.983 238.900 84.450 C 239.381 85.502 241.231 86.554 240.550 87.550 C 238.965 89.864 235.955 90.690 233.468 92.114 C 232.516 92.659 231.507 93.369 230.375 93.250 C 229.312 93.144 229.117 91.663 228.350 91.100 C 227.022 90.694 224.495 91.446 224.350 90.500 C 224.178 89.345 226.504 88.103 227.750 87.100 C 228.657 86.366 230.024 85.859 230.650 85.250 Z " transform="matrix(-1.2048193216323853, 0, 0, 1.2048193216323853, 324.45, -94.25)"/>
      <path id="ID0.254142708145082" fill="#CC99FF" stroke="#000000" stroke-width="1" stroke-linecap="round" d="M 243.875 86.500 C 248.699 84.709 252.525 79.895 257.650 79.500 C 260.210 79.310 264.059 83.097 263.150 84.500 C 261.942 86.364 256.264 84.934 253.150 86.250 C 249.066 87.974 245.828 91.603 241.650 93.250 C 238.771 94.439 236.104 95.105 233.250 95 C 230.135 94.871 226.501 94.732 224.250 92.600 C 222.973 91.387 224.131 88.557 225.400 87.250 C 226.964 85.640 229.422 84.821 231.650 84.850 C 233.445 84.873 234.698 87.044 236.500 87.250 C 238.937 87.617 241.521 87.374 243.875 86.500 Z " transform="matrix(-1.2048193216323853, 0, 0, 1.2048193216323853, 324.45, -94.25)"/>
    </g>
  </g>
</svg>
